src/svg/icon-phone.svg

<svg width="15" height="14" viewBox="0 0 15 14" fill="none" xmlns="http://www.w3.org/2000/svg">
<path d="M13.4385 12.4093L13.9701 11.8266C14.6746 11.1547 14.6746 10.0675 13.9701 9.3955C13.952 9.37828 12.5465 8.35017 12.5465 8.35017C11.8458 7.71596 10.7445 7.71743 10.0456 8.3535L8.93216 9.24553C7.09648 8.52318 5.63917 7.13518 4.88261 5.38859L5.8173 4.33327C6.48683 3.66887 6.48863 2.62137 5.82139 1.9549C5.82139 1.9549 4.73891 0.620187 4.7208 0.602969C4.02728 -0.0607038 2.90183 -0.0720822 2.19362 0.577419L1.52182 1.13285C-2.44712 5.51079 6.09946 13.574 10.8559 13.4291C11.8262 13.4344 12.7576 13.0666 13.4385 12.4093V12.4093Z" fill="currentColor"/>
</svg>

<svg xmlns="http://www.w3.org/2000/svg" width="15" height="14" fill="none" viewBox="0 0 15 14"><path fill="currentColor" d="m13.439 12.41.531-.583a1.66 1.66 0 0 0 0-2.431c-.018-.018-1.424-1.046-1.424-1.046a1.88 1.88 0 0 0-2.5.004l-1.114.892c-1.836-.723-3.293-2.11-4.05-3.857l.935-1.056a1.66 1.66 0 0 0 .004-2.378S4.739.62 4.721.603A1.867 1.867 0 0 0 2.194.577l-.672.556c-3.97 4.378 4.577 12.441 9.334 12.296a3.7 3.7 0 0 0 2.582-1.02"/></svg>
